src/images/icon.svg

<svg width="32" height="32" viewBox="0 0 32 32" fill="none" xmlns="http://www.w3.org/2000/svg">
<g clip-path="url(#clip0_3319_3718)">
<path d="M17.2533 16L24.6221 8.63112C24.7678 8.46107 24.8439 8.24234 24.8352 8.01863C24.8266 7.79492 24.7338 7.5827 24.5755 7.4244C24.4172 7.26609 24.205 7.17335 23.9813 7.16471C23.7576 7.15607 23.5389 7.23216 23.3688 7.37779L15.9999 14.7467L8.63103 7.3689C8.46365 7.20152 8.23663 7.10748 7.99992 7.10748C7.76321 7.10748 7.53619 7.20152 7.36881 7.3689C7.20143 7.53628 7.1074 7.7633 7.1074 8.00001C7.1074 8.23672 7.20143 8.46374 7.36881 8.63112L14.7466 16L7.36881 23.3689C7.27576 23.4486 7.20019 23.5466 7.14683 23.6569C7.09348 23.7672 7.0635 23.8873 7.05877 24.0097C7.05404 24.1322 7.07467 24.2542 7.11936 24.3683C7.16404 24.4824 7.23183 24.586 7.31846 24.6726C7.40508 24.7592 7.50868 24.827 7.62275 24.8717C7.73681 24.9164 7.85889 24.937 7.9813 24.9323C8.10372 24.9275 8.22384 24.8976 8.33412 24.8442C8.4444 24.7909 8.54246 24.7153 8.62214 24.6222L15.9999 17.2533L23.3688 24.6222C23.5389 24.7679 23.7576 24.8439 23.9813 24.8353C24.205 24.8267 24.4172 24.7339 24.5755 24.5756C24.7338 24.4173 24.8266 24.2051 24.8352 23.9814C24.8439 23.7577 24.7678 23.5389 24.6221 23.3689L17.2533 16Z" fill="#202025"/>
</g>
<defs>
<clipPath id="clip0_3319_3718">
<rect width="32" height="32" fill="white"/>
</clipPath>
</defs>
</svg>

<svg aria-hidden="true" style="position: absolute; width: 0; height: 0; overflow: hidden;" version="1.1" xmlns="http://www.w3.org/2000/svg" xmlns:xlink="http://www.w3.org/1999/xlink">
<defs>
<symbol id="close" viewBox="0 0 32 32">
<path d="M17.253 16l7.37-7.369c0.138-0.156 0.223-0.362 0.223-0.588 0-0.49-0.398-0.888-0.888-0.888-0.226 0-0.433 0.085-0.59 0.224l0.001-0.001-7.37 7.369-7.368-7.378c-0.164-0.18-0.399-0.292-0.661-0.292-0.493 0-0.893 0.4-0.893 0.893 0 0.261 0.112 0.496 0.291 0.66l0.001 0.001 7.378 7.37-7.378 7.369c-0.193 0.164-0.314 0.407-0.314 0.678 0 0.491 0.398 0.889 0.889 0.889 0.271 0 0.514-0.121 0.677-0.313l0.001-0.001 7.378-7.369 7.369 7.37c0.154 0.133 0.357 0.214 0.578 0.214 0.491 0 0.889-0.398 0.889-0.889 0-0.221-0.081-0.424-0.215-0.58l0.001 0.001-7.369-7.369z"></path>
</symbol>

<symbol id="menu" viewBox="0 0 60 32">
<path d="M2 0h56c1.105 0 2 0.895 2 2s-0.895 2-2 2h-56c-1.105 0-2-0.895-2-2s0.895-2 2-2z"></path>
<path d="M2 14h56c1.105 0 2 0.895 2 2s-0.895 2-2 2h-56c-1.105 0-2-0.895-2-2s0.895-2 2-2z"></path>
<path d="M2 28h56c1.105 0 2 0.895 2 2s-0.895 2-2 2h-56c-1.105 0-2-0.895-2-2s0.895-2 2-2z"></path>
</symbol>
<symbol id="search" viewBox="0 0 32 32">
<path d="M13.333 24c2.473-0.001 4.749-0.848 6.552-2.268l-0.023 0.017 5.861 5.861 1.885-1.885-5.861-5.861c1.404-1.781 2.251-4.057 2.252-6.531v-0c0-5.881-4.785-10.667-10.667-10.667s-10.667 4.785-10.667 10.667 4.785 10.667 10.667 10.667zM13.333 5.333c4.412 0 8 3.588 8 8s-3.588 8-8 8-8-3.588-8-8 3.588-8 8-8z"></path>
</symbol>
<symbol id="heart" viewBox="0 0 35 32">
<path d="M17.684 32l-2.565-2.302c-9.107-8.143-15.119-13.512-15.119-20.106 0-5.373 4.28-9.592 9.726-9.592 3.077 0 6.029 1.413 7.958 3.645 1.949-2.223 4.788-3.625 7.954-3.645l0.003-0c5.447 0 9.726 4.221 9.726 9.592 0 6.592-6.013 11.963-15.119 20.125l-2.565 2.284z"></path>
<path d="M17.684 28.632l-2.075-1.817c-7.373-6.429-12.241-10.669-12.241-15.874 0-4.241 3.464-7.572 7.874-7.572 2.491 0 4.881 1.115 6.442 2.877 1.595-1.763 3.889-2.868 6.441-2.877h0.002c4.409 0 7.874 3.331 7.874 7.572 0 5.204-4.867 9.443-12.241 15.887l-2.075 1.804z"></path>
</symbol>
<symbol id="check" viewBox="0 0 24 24">
<path d="M5.84302 9.59274L11.5 15.2497L17.157 9.59274L16.45 8.88574L11.5 13.8357L6.55002 8.88574L5.84302 9.59274Z" />
<path d="M5.84302 9.59372L11.5 15.2507L17.157 9.59372L16.45 8.88672L11.5 13.8367L6.55002 8.88672L5.84302 9.59372Z" />
</symbol>
</defs>
</svg>
